metacity-1/maximize.svg

<?xml version="1.0" encoding="UTF-8" standalone="no"?>
<!-- Created with Inkscape (http://www.inkscape.org/) -->

<svg
   xmlns:dc="http://purl.org/dc/elements/1.1/"
   xmlns:cc="http://creativecommons.org/ns#"
   xmlns:rdf="http://www.w3.org/1999/02/22-rdf-syntax-ns#"
   xmlns:svg="http://www.w3.org/2000/svg"
   xmlns="http://www.w3.org/2000/svg"
   xmlns:xlink="http://www.w3.org/1999/xlink"
   xmlns:sodipodi="http://sodipodi.sourceforge.net/DTD/sodipodi-0.dtd"
   xmlns:inkscape="http://www.inkscape.org/namespaces/inkscape"
   version="1.0"
   width="18"
   height="16"
   id="svg2747"
   sodipodi:version="0.32"
   inkscape:version="0.48.3.1 r9886"
   sodipodi:docname="maximize-normal.svg"
   inkscape:output_extension="org.inkscape.output.svg.inkscape">
  <metadata
     id="metadata9">
    <rdf:RDF>
      <cc:Work
         rdf:about="">
        <dc:format>image/svg+xml</dc:format>
        <dc:type
           rdf:resource="http://purl.org/dc/dcmitype/StillImage" />
        <dc:title />
      </cc:Work>
    </rdf:RDF>
  </metadata>
  <sodipodi:namedview
     inkscape:window-height="430"
     inkscape:window-width="669"
     inkscape:pageshadow="2"
     inkscape:pageopacity="0"
     guidetolerance="10.0"
     gridtolerance="10.0"
     objecttolerance="10.0"
     borderopacity="1.0"
     bordercolor="#666666"
     pagecolor="#dedede"
     id="base"
     showgrid="false"
     showguides="false"
     inkscape:guide-bbox="true"
     showborder="true"
     inkscape:zoom="3.8263889"
     inkscape:cx="8.1773588"
     inkscape:cy="5.85173"
     inkscape:window-x="353"
     inkscape:window-y="97"
     inkscape:current-layer="svg2747"
     fit-margin-top="0"
     fit-margin-left="0"
     fit-margin-right="0"
     fit-margin-bottom="0"
     inkscape:window-maximized="0">
    <sodipodi:guide
       orientation="1,0"
       position="286.91968,115.79117"
       id="guide2386" />
    <sodipodi:guide
       orientation="0,1"
       position="299.19277,123.05221"
       id="guide2388" />
    <inkscape:grid
       type="xygrid"
       id="grid2387"
       visible="true"
       enabled="true"
       empspacing="5"
       snapvisiblegridlinesonly="true" />
  </sodipodi:namedview>
  <defs
     id="defs2749">
    <linearGradient
       id="linearGradient3587-6-5-1-5">
      <stop
         offset="0"
         style="stop-color:#000000;stop-opacity:1"
         id="stop3589-9-2-8-5" />
      <stop
         offset="1"
         style="stop-color:#646464;stop-opacity:1"
         id="stop3591-7-4-3-0" />
    </linearGradient>
    <linearGradient
       inkscape:collect="always"
       xlink:href="#linearGradient3587-6-5-1-5"
       id="linearGradient6693"
       gradientUnits="userSpaceOnUse"
       gradientTransform="matrix(0.7071068,0.7071068,-0.7071068,0.7071068,-9.87868,-7.4350298)"
       x1="19.490692"
       y1="-4.321744"
       x2="22.886868"
       y2="-0.92556846" />
    <linearGradient
       inkscape:collect="always"
       xlink:href="#linearGradient3587-6-5-1-5"
       id="linearGradient6695"
       gradientUnits="userSpaceOnUse"
       gradientTransform="matrix(0.7071068,0.7071068,-0.7071068,0.7071068,-9.87868,-7.4350298)"
       x1="22.863201"
       y1="-0.94923496"
       x2="26.23391"
       y2="2.4214737" />
  </defs>
  <text
     id="text4087-2-6-5"
     y="238.8988"
     x="337.90759"
     style="font-size:14px;font-style:normal;font-weight:normal;opacity:0.8;fill:#000000;fill-opacity:1;stroke:none;font-family:Bitstream Vera Sans"
     xml:space="preserve"><tspan
       y="238.8988"
       x="337.90759"
       id="tspan4089-7-2-9"
       sodipodi:role="line" /></text>
  <text
     xml:space="preserve"
     style="font-size:14px;font-style:normal;font-weight:normal;opacity:0.8;fill:#000000;fill-opacity:1;stroke:none;font-family:Bitstream Vera Sans"
     x="-1677.7749"
     y="1062.9437"
     id="text4087-2-6-5-59"><tspan
       sodipodi:role="line"
       id="tspan4089-7-2-9-4"
       x="-1677.7749"
       y="1062.9437" /></text>
  <flowRoot
     xml:space="preserve"
     id="flowRoot38698"
     style="font-size:12px;font-style:normal;font-variant:normal;font-weight:normal;font-stretch:normal;line-height:125%;letter-spacing:0px;word-spacing:0px;fill:#000000;fill-opacity:1;stroke:none;font-family:Ubuntu;-inkscape-font-specification:Ubuntu"
     transform="translate(-81.87659,-690.30726)"><flowRegion
       id="flowRegion38700"><rect
         id="rect38702"
         width="40"
         height="23"
         x="531"
         y="299" /></flowRegion><flowPara
       id="flowPara38704" /></flowRoot>  <path
     inkscape:connector-curvature="0"
     style="opacity:0.6;fill:#ffffff;fill-opacity:1;fill-rule:nonzero;stroke:none;stroke-width:0.99829447000000004;marker:none;visibility:visible;display:inline;overflow:visible"
     d="m 9,4.0000002 1.78125,1.78125 -1.5,1.5 L 9,7.5625002 10.4375,9 l 0.28125,-0.2812498 1.5,-1.5 L 14,9 l 0,-4.9999998 -5,0 z M 4,9 4,14 9,14 7.1875,12.1875 8.40625,11 9,10.4375 7.59375,9 7,9.59375 5.8125,10.8125 4,9 z"
     id="path2394-5" />
  <path
     style="opacity:0.5;color:#000000;fill:url(#linearGradient6693);fill-opacity:1;fill-rule:evenodd;stroke:none;stroke-width:0.99829447000000004;marker:none;visibility:visible;display:inline;overflow:visible;enable-background:accumulate"
     d="m 9,3.0000002 1.78125,1.78125 -1.5,1.5 L 9,6.5625002 l 1.4375,1.4375 0.28125,-0.28125 1.5,-1.5 1.78125,1.78125 0,-5 -5,0 z"
     id="path6691"
     inkscape:connector-curvature="0" />
  <path
     style="opacity:0.5;color:#000000;fill:url(#linearGradient6695);fill-opacity:1;fill-rule:evenodd;stroke:none;stroke-width:0.99829447000000004;marker:none;visibility:visible;display:inline;overflow:visible;enable-background:accumulate"
     d="M 4,8.0000002 4,13 9,13 7.1875,11.1875 8.40625,10 9,9.4375 7.59375,8.0000002 7,8.5937502 5.8125,9.8125 4,8.0000002 z"
     id="path2394"
     inkscape:connector-curvature="0" />
  <text
     id="text4087-2-6-5-1"
     y="7.7151051"
     x="-750.84784"
     style="font-size:14px;font-style:normal;font-weight:normal;opacity:0.8;fill:#000000;fill-opacity:1;stroke:none;font-family:Bitstream Vera Sans"
     xml:space="preserve"><tspan
       y="7.7151051"
       x="-750.84784"
       id="tspan4089-7-2-9-7"
       sodipodi:role="line" /></text>
  <text
     id="text4087-2-6-5-7"
     y="-449.28488"
     x="141.77814"
     style="font-size:14px;font-style:normal;font-weight:normal;opacity:0.8;fill:#000000;fill-opacity:1;stroke:none;font-family:Bitstream Vera Sans"
     xml:space="preserve"><tspan
       y="-449.28488"
       x="141.77814"
       id="tspan4089-7-2-9-1"
       sodipodi:role="line" /></text>
  <text
     id="text4087-2-6-5-5"
     y="-494.31586"
     x="168.26166"
     style="font-size:14px;font-style:normal;font-weight:normal;opacity:0.8;fill:#000000;fill-opacity:1;stroke:none;font-family:Bitstream Vera Sans"
     xml:space="preserve"><tspan
       y="-494.31586"
       x="168.26166"
       id="tspan4089-7-2-9-6"
       sodipodi:role="line" /></text>
  <text
     id="text4087-2-6-5-3"
     y="-502.28488"
     x="-1480.2218"
     style="font-size:14px;font-style:normal;font-weight:normal;opacity:0.8;fill:#000000;fill-opacity:1;stroke:none;font-family:Bitstream Vera Sans"
     xml:space="preserve"><tspan
       y="-502.28488"
       x="-1480.2218"
       id="tspan4089-7-2-9-18"
       sodipodi:role="line" /></text>
  <text
     id="text4087-2-6-5-4"
     y="-804.28491"
     x="134.086"
     style="font-size:14px;font-style:normal;font-weight:normal;opacity:0.8;fill:#000000;fill-opacity:1;stroke:none;font-family:Bitstream Vera Sans"
     xml:space="preserve"><tspan
       y="-804.28491"
       x="134.086"
       id="tspan4089-7-2-9-9"
       sodipodi:role="line" /></text>
  <text
     id="text4087-2-6-5-7-1"
     y="-111.61586"
     x="1776.6676"
     style="font-size:14px;font-style:normal;font-weight:normal;opacity:0.8;fill:#000000;fill-opacity:1;stroke:none;font-family:Bitstream Vera Sans"
     xml:space="preserve"><tspan
       y="-111.61586"
       x="1776.6676"
       id="tspan4089-7-2-9-1-8"
       sodipodi:role="line" /></text>
  <text
     id="text4087-2-6-5-5-5"
     y="-156.64684"
     x="1803.151"
     style="font-size:14px;font-style:normal;font-weight:normal;opacity:0.8;fill:#000000;fill-opacity:1;stroke:none;font-family:Bitstream Vera Sans"
     xml:space="preserve"><tspan
       y="-156.64684"
       x="1803.151"
       id="tspan4089-7-2-9-6-9"
       sodipodi:role="line" /></text>
  <text
     id="text4087-2-6-5-75"
     y="-164.61586"
     x="154.66754"
     style="font-size:14px;font-style:normal;font-weight:normal;opacity:0.8;fill:#000000;fill-opacity:1;stroke:none;font-family:Bitstream Vera Sans"
     xml:space="preserve"><tspan
       y="-164.61586"
       x="154.66754"
       id="tspan4089-7-2-9-3"
       sodipodi:role="line" /></text>
  <text
     id="text4087-2-6-5-4-8"
     y="-466.61584"
     x="1768.9755"
     style="font-size:14px;font-style:normal;font-weight:normal;opacity:0.8;fill:#000000;fill-opacity:1;stroke:none;font-family:Bitstream Vera Sans"
     xml:space="preserve"><tspan
       y="-466.61584"
       x="1768.9755"
       id="tspan4089-7-2-9-9-8"
       sodipodi:role="line" /></text>
  <text
     id="text4087-2-6-5-45"
     y="-217.77017"
     x="-881.88147"
     style="font-size:14px;font-style:normal;font-weight:normal;opacity:0.8;fill:#000000;fill-opacity:1;stroke:none;font-family:Bitstream Vera Sans"
     xml:space="preserve"><tspan
       y="-217.77017"
       x="-881.88147"
       id="tspan4089-7-2-9-75"
       sodipodi:role="line" /></text>
  <text
     xml:space="preserve"
     style="font-size:14px;font-style:normal;font-weight:normal;opacity:0.8;fill:#000000;fill-opacity:1;stroke:none;font-family:Bitstream Vera Sans"
     x="-2897.564"
     y="606.27478"
     id="text4087-2-6-5-59-0"><tspan
       sodipodi:role="line"
       id="tspan4089-7-2-9-4-4"
       x="-2897.564"
       y="606.27478" /></text>
  <g
     transform="translate(-338.00604,-450.49095)"
     inkscape:label="Layer#2"
     id="layer4">
    <text
       xml:space="preserve"
       style="font-size:14px;font-style:normal;font-weight:normal;opacity:0.8;fill:#000000;fill-opacity:1;stroke:none;font-family:Bitstream Vera Sans"
       x="-664.2738"
       y="1159.4154"
       id="text4087-2-6-5-0"><tspan
         sodipodi:role="line"
         id="tspan4089-7-2-9-13"
         x="-664.2738"
         y="1159.4154" /></text>
  </g>
</svg>

<?xml version="1.0" encoding="UTF-8" standalone="no"?>
<!-- Created with Inkscape (http://www.inkscape.org/) -->

<svg
   xmlns:dc="http://purl.org/dc/elements/1.1/"
   xmlns:cc="http://creativecommons.org/ns#"
   xmlns:rdf="http://www.w3.org/1999/02/22-rdf-syntax-ns#"
   xmlns:svg="http://www.w3.org/2000/svg"
   xmlns="http://www.w3.org/2000/svg"
   xmlns:sodipodi="http://sodipodi.sourceforge.net/DTD/sodipodi-0.dtd"
   xmlns:inkscape="http://www.inkscape.org/namespaces/inkscape"
   version="1.0"
   width="18"
   height="16"
   id="svg2747"
   sodipodi:version="0.32"
   inkscape:version="0.48.4 r9939"
   sodipodi:docname="maximize.svg"
   inkscape:output_extension="org.inkscape.output.svg.inkscape">
  <metadata
     id="metadata9">
    <rdf:RDF>
      <cc:Work
         rdf:about="">
        <dc:format>image/svg+xml</dc:format>
        <dc:type
           rdf:resource="http://purl.org/dc/dcmitype/StillImage" />
        <dc:title />
      </cc:Work>
    </rdf:RDF>
  </metadata>
  <sodipodi:namedview
     inkscape:window-height="446"
     inkscape:window-width="677"
     inkscape:pageshadow="2"
     inkscape:pageopacity="0"
     guidetolerance="10.0"
     gridtolerance="10.0"
     objecttolerance="10.0"
     borderopacity="1.0"
     bordercolor="#666666"
     pagecolor="#dedede"
     id="base"
     showgrid="false"
     showguides="false"
     inkscape:guide-bbox="true"
     showborder="true"
     inkscape:zoom="3.8263889"
     inkscape:cx="8.1773588"
     inkscape:cy="5.85173"
     inkscape:window-x="353"
     inkscape:window-y="97"
     inkscape:current-layer="svg2747"
     fit-margin-top="0"
     fit-margin-left="0"
     fit-margin-right="0"
     fit-margin-bottom="0"
     inkscape:window-maximized="0">
    <sodipodi:guide
       orientation="1,0"
       position="286.91968,115.79117"
       id="guide2386" />
    <sodipodi:guide
       orientation="0,1"
       position="299.19277,123.05221"
       id="guide2388" />
    <inkscape:grid
       type="xygrid"
       id="grid2387"
       visible="true"
       enabled="true"
       empspacing="5"
       snapvisiblegridlinesonly="true" />
  </sodipodi:namedview>
  <defs
     id="defs2749">
    <linearGradient
       id="linearGradient3587-6-5-1-5">
      <stop
         offset="0"
         style="stop-color:#000000;stop-opacity:1"
         id="stop3589-9-2-8-5" />
      <stop
         offset="1"
         style="stop-color:#646464;stop-opacity:1"
         id="stop3591-7-4-3-0" />
    </linearGradient>
  </defs>
  <text
     id="text4087-2-6-5"
     y="238.8988"
     x="337.90759"
     style="font-size:14px;font-style:normal;font-weight:normal;opacity:0.8;fill:#000000;fill-opacity:1;stroke:none;font-family:Bitstream Vera Sans"
     xml:space="preserve"><tspan
       y="238.8988"
       x="337.90759"
       id="tspan4089-7-2-9"
       sodipodi:role="line" /></text>
  <text
     xml:space="preserve"
     style="font-size:14px;font-style:normal;font-weight:normal;opacity:0.8;fill:#000000;fill-opacity:1;stroke:none;font-family:Bitstream Vera Sans"
     x="-1677.7749"
     y="1062.9437"
     id="text4087-2-6-5-59"><tspan
       sodipodi:role="line"
       id="tspan4089-7-2-9-4"
       x="-1677.7749"
       y="1062.9437" /></text>
  <flowRoot
     xml:space="preserve"
     id="flowRoot38698"
     style="font-size:12px;font-style:normal;font-variant:normal;font-weight:normal;font-stretch:normal;line-height:125%;letter-spacing:0px;word-spacing:0px;fill:#000000;fill-opacity:1;stroke:none;font-family:Ubuntu;-inkscape-font-specification:Ubuntu"
     transform="translate(-81.87659,-690.30726)"><flowRegion
       id="flowRegion38700"><rect
         id="rect38702"
         width="40"
         height="23"
         x="531"
         y="299" /></flowRegion><flowPara
       id="flowPara38704" /></flowRoot>  <path
     style="opacity:1;color:#bebebe;fill:#bebebe;fill-opacity:1;fill-rule:nonzero;stroke:none;stroke-width:1;marker:none;visibility:visible;display:inline;overflow:visible;enable-background:accumulate"
     d="M 9 3 L 10.78125 4.78125 L 9.28125 6.28125 L 9 6.5625 L 10.4375 8 L 10.71875 7.71875 L 12.21875 6.21875 L 14 8 L 14 3 L 9 3 z M 4 8 L 4 13 L 9 13 L 7.1875 11.1875 L 8.40625 10 L 9 9.4375 L 7.59375 8 L 7 8.59375 L 5.8125 9.8125 L 4 8 z "
     id="path6691" />
  <text
     id="text4087-2-6-5-1"
     y="7.7151051"
     x="-750.84784"
     style="font-size:14px;font-style:normal;font-weight:normal;opacity:0.8;fill:#000000;fill-opacity:1;stroke:none;font-family:Bitstream Vera Sans"
     xml:space="preserve"><tspan
       y="7.7151051"
       x="-750.84784"
       id="tspan4089-7-2-9-7"
       sodipodi:role="line" /></text>
  <text
     id="text4087-2-6-5-7"
     y="-449.28488"
     x="141.77814"
     style="font-size:14px;font-style:normal;font-weight:normal;opacity:0.8;fill:#000000;fill-opacity:1;stroke:none;font-family:Bitstream Vera Sans"
     xml:space="preserve"><tspan
       y="-449.28488"
       x="141.77814"
       id="tspan4089-7-2-9-1"
       sodipodi:role="line" /></text>
  <text
     id="text4087-2-6-5-5"
     y="-494.31586"
     x="168.26166"
     style="font-size:14px;font-style:normal;font-weight:normal;opacity:0.8;fill:#000000;fill-opacity:1;stroke:none;font-family:Bitstream Vera Sans"
     xml:space="preserve"><tspan
       y="-494.31586"
       x="168.26166"
       id="tspan4089-7-2-9-6"
       sodipodi:role="line" /></text>
  <text
     id="text4087-2-6-5-3"
     y="-502.28488"
     x="-1480.2218"
     style="font-size:14px;font-style:normal;font-weight:normal;opacity:0.8;fill:#000000;fill-opacity:1;stroke:none;font-family:Bitstream Vera Sans"
     xml:space="preserve"><tspan
       y="-502.28488"
       x="-1480.2218"
       id="tspan4089-7-2-9-18"
       sodipodi:role="line" /></text>
  <text
     id="text4087-2-6-5-4"
     y="-804.28491"
     x="134.086"
     style="font-size:14px;font-style:normal;font-weight:normal;opacity:0.8;fill:#000000;fill-opacity:1;stroke:none;font-family:Bitstream Vera Sans"
     xml:space="preserve"><tspan
       y="-804.28491"
       x="134.086"
       id="tspan4089-7-2-9-9"
       sodipodi:role="line" /></text>
  <text
     id="text4087-2-6-5-7-1"
     y="-111.61586"
     x="1776.6676"
     style="font-size:14px;font-style:normal;font-weight:normal;opacity:0.8;fill:#000000;fill-opacity:1;stroke:none;font-family:Bitstream Vera Sans"
     xml:space="preserve"><tspan
       y="-111.61586"
       x="1776.6676"
       id="tspan4089-7-2-9-1-8"
       sodipodi:role="line" /></text>
  <text
     id="text4087-2-6-5-5-5"
     y="-156.64684"
     x="1803.151"
     style="font-size:14px;font-style:normal;font-weight:normal;opacity:0.8;fill:#000000;fill-opacity:1;stroke:none;font-family:Bitstream Vera Sans"
     xml:space="preserve"><tspan
       y="-156.64684"
       x="1803.151"
       id="tspan4089-7-2-9-6-9"
       sodipodi:role="line" /></text>
  <text
     id="text4087-2-6-5-75"
     y="-164.61586"
     x="154.66754"
     style="font-size:14px;font-style:normal;font-weight:normal;opacity:0.8;fill:#000000;fill-opacity:1;stroke:none;font-family:Bitstream Vera Sans"
     xml:space="preserve"><tspan
       y="-164.61586"
       x="154.66754"
       id="tspan4089-7-2-9-3"
       sodipodi:role="line" /></text>
  <text
     id="text4087-2-6-5-4-8"
     y="-466.61584"
     x="1768.9755"
     style="font-size:14px;font-style:normal;font-weight:normal;opacity:0.8;fill:#000000;fill-opacity:1;stroke:none;font-family:Bitstream Vera Sans"
     xml:space="preserve"><tspan
       y="-466.61584"
       x="1768.9755"
       id="tspan4089-7-2-9-9-8"
       sodipodi:role="line" /></text>
  <text
     id="text4087-2-6-5-45"
     y="-217.77017"
     x="-881.88147"
     style="font-size:14px;font-style:normal;font-weight:normal;opacity:0.8;fill:#000000;fill-opacity:1;stroke:none;font-family:Bitstream Vera Sans"
     xml:space="preserve"><tspan
       y="-217.77017"
       x="-881.88147"
       id="tspan4089-7-2-9-75"
       sodipodi:role="line" /></text>
  <text
     xml:space="preserve"
     style="font-size:14px;font-style:normal;font-weight:normal;opacity:0.8;fill:#000000;fill-opacity:1;stroke:none;font-family:Bitstream Vera Sans"
     x="-2897.564"
     y="606.27478"
     id="text4087-2-6-5-59-0"><tspan
       sodipodi:role="line"
       id="tspan4089-7-2-9-4-4"
       x="-2897.564"
       y="606.27478" /></text>
  <g
     transform="translate(-338.00604,-450.49095)"
     inkscape:label="Layer#2"
     id="layer4">
    <text
       xml:space="preserve"
       style="font-size:14px;font-style:normal;font-weight:normal;opacity:0.8;fill:#000000;fill-opacity:1;stroke:none;font-family:Bitstream Vera Sans"
       x="-664.2738"
       y="1159.4154"
       id="text4087-2-6-5-0"><tspan
         sodipodi:role="line"
         id="tspan4089-7-2-9-13"
         x="-664.2738"
         y="1159.4154" /></text>
  </g>
</svg>
